X: 3
T: Dick Gossip's
R: reel
M: 4/4
L: 1/8
K: Dmaj
|:F2 AF GFED|F2 AF GFED|E3F GFED|E3F GFED|
|F2 AF GFED|F2 AF GFED|(3Bcd ef gece|d2 dc d2 AG|
f2 af gfed|f2 af gfed|e3f gfed|e3f gfed|
f2 af gfed|f2 af gfed|(3Bcd ef gece|d2 dc d2  ef||
|:gB B2 gBaB|gB B2 gfed|(3cBA eA fAeA|(3Bcd ef gfef|
|gB B2 gBaB|gB B2 gfed|(3Bcd ef gece|1d2 dc d2 ef:|2d2 dc d2 AG||


Tune 408	Setting 408

